X: 4
T: Bushy Park    [F]
O: 1779
R: jig
S: Image from Darlene Wigton, June 2017
Z: 2017 John Chambers <jc:trillian.mit.edu>
L: 1/8
M: 6/8
K: F
% - - - - - - - - - -
V: 1 brace=2 staves=2
c/B/ |\
"F"AFF cAA | "Bb"BdB "Gm"G2B | "F"Acf "Gm"Bdg | "C7"ecc c2 c/B/ |\
"F"AFF cAA | "Bb"BdB "Gm"G2B | "F"Acf "C7"cbg | "F"aff f2 :|
|: f/g/ |\
"F"aff "C"gee | "G7"fdd "C7"ecc | "F"cAF Acf | "C7"BGG G2 c/B/ |\
"F"AFf "Gm"dBg | "C"eca "/d"b2"/e"g | "F"afa "C7"gee | "F"fFF F2 :| [b2F2]
% - - - - - - - - - -
V: 2 clef=bass middle=d
z |\
f3 f3 | b3 b2g | a2f b2g | c'cc c2z |\
f3 f3 | b3 b2g | c'3 c3 | fFF F2 :|
|: z |\
f3 c3 | G3 c3 | f3 f2F | cCC C2z |\
f3 b2g | c'2c d2e | f2F c2C | FFF F2 :| [c'2C2]
% - - - - - - - - - -
%%begintext align
%% Cast off one Cu foot it and hands four at bottom .|
%% Cast up foot it & hands four at top :|
%% lead down two Cu. up again and cast off :|.
%% hands six quite round :|:
%%endtext

%%sep 1 1 500

